X: 122
T: the Inocent Maid
T: the Innocent Maid
%R: jig
Z: 2017 John Chambers <jc:trillian.mit.edu>
B: John Treat - "Gamut for the Fifes", 1779, p.11 #2
F: https://archive.org/details/GamutFortheFifes
N: Other collections have this tune in A major.
M: 6/8
L: 1/8
K: Amix
% - - - - - - - - - - - - - - - - - - - - - - - - -
|:\
ecA AcA | ecA AcA | EFG Bcd | cBA BGE |\
ecA AcA | ecA AcA | EFG Bcd | cBc A3 :|
|:\
eca eca | eca ecA | dcd Bcd | edc B2 |\
eca eca | eca efg | agf edc | dBd A3 :|
% - - - - - - - - - - - - - - - - - - - - - - - - -

%%sep 1 1 500
%%sep 1 1 500

